packages/foundations/assets/icons/functional/images/notification/bell_disabled_12.svg

<svg width="12" height="12" viewBox="0 0 12 12" fill="none" xmlns="http://www.w3.org/2000/svg">
<g clip-path="url(#clip0_232_407)">
<path fill-rule="evenodd" clip-rule="evenodd" d="M9.39122 5.13661L9.39128 7.2761C9.39128 7.94214 9.46533 8.12714 9.78625 8.38204L9.9185 8.48197C10.1059 8.61076 10.1997 8.79807 10.1997 8.98538C10.1997 9.26635 9.9896 9.58245 9.66074 9.58245H7.2005V9.59414C7.2005 10.2615 6.66158 10.8 5.99378 10.8C5.419 10.8 4.8743 10.3385 4.79658 9.7312L6.12842 8.39941L8.3486 8.40001L8.30406 8.222C8.23662 7.92354 8.20276 7.60489 8.19716 7.09537L8.19602 6.33181L9.39122 5.13661ZM5.99378 1.20001C7.1394 1.20001 8.0704 1.67329 8.66619 2.4848L9.1754 1.97575C9.40971 1.74143 9.78961 1.74143 10.0239 1.97575C10.2402 2.19204 10.281 2.57758 10.0239 2.82428C7.62498 5.22541 5.22498 7.62541 2.82393 10.0243C2.58961 10.2586 2.20971 10.2586 1.9754 10.0243C1.75911 9.80799 1.71986 9.47119 1.9754 9.17575C2.07854 9.07042 2.18256 8.96604 2.28746 8.86261L2.31072 8.81219C2.48464 8.41663 2.59634 7.98022 2.59634 7.24096V5.09854C2.59634 2.76881 3.92018 1.20001 5.99378 1.20001ZM6.00554 2.40589C4.68164 2.40589 3.803 3.33074 3.803 4.94637V6.94831C3.803 7.09384 3.80074 7.22806 3.79545 7.35519L7.78762 3.36276C7.41437 2.742 6.80005 2.40589 6.00554 2.40589Z" fill="#1A1C1F"/>
</g>
<defs>
<clipPath id="clip0_232_407">
<rect width="12" height="12" fill="white"/>
</clipPath>
</defs>
</svg>

<svg xmlns="http://www.w3.org/2000/svg" width="12" height="12" fill="none"><g clip-path="url(#a)"><path fill="#1A1C1F" fill-rule="evenodd" d="M9.391 5.137v2.14c0 .665.074.85.395 1.105l.133.1a.61.61 0 0 1 .28.503c0 .281-.21.597-.538.597H7.2v.012c0 .668-.54 1.206-1.207 1.206-.575 0-1.12-.462-1.197-1.069L6.128 8.4l2.22.001-.044-.178c-.067-.298-.101-.617-.107-1.127l-.001-.763zM5.994 1.2c1.145 0 2.076.473 2.672 1.285l.51-.51a.6.6 0 0 1 .848 0 .595.595 0 0 1 0 .85l-7.2 7.2a.6.6 0 0 1-.849 0c-.216-.217-.255-.554 0-.85l.312-.312.024-.05c.174-.396.285-.833.285-1.572V5.099c0-2.33 1.324-3.899 3.398-3.899m.012 1.206c-1.324 0-2.203.925-2.203 2.54v2.002q0 .218-.008.407l3.993-3.992c-.374-.621-.988-.957-1.782-.957" clip-rule="evenodd"/></g><defs><clipPath id="a"><path fill="#fff" d="M0 0h12v12H0z"/></clipPath></defs></svg>
